svgs/google_translate.svg

<svg width="192" height="192" viewBox="0 0 192 192" fill="none" xmlns="http://www.w3.org/2000/svg">
<path fill-rule="evenodd" clip-rule="evenodd" d="M34 28C30.6863 28 28 30.6863 28 34V134C28 137.314 30.6863 140 34 140H121.375L79.8263 28H34ZM16 34C16 24.0589 24.0589 16 34 16H84C86.5088 16 88.7528 17.561 89.6254 19.9132L97.077 40H158C167.941 40 176 48.0589 176 58V158C176 167.941 167.941 176 158 176H108C105.491 176 103.247 174.439 102.375 172.087L94.923 152H34C24.0589 152 16 143.941 16 134V34ZM135.625 143.913L101.529 52H158C161.314 52 164 54.6863 164 58V158C164 161.314 161.314 164 158 164H112.174L107.722 152H130C131.964 152 133.804 151.039 134.925 149.426C136.047 147.814 136.309 145.755 135.625 143.913ZM48 88C48 79.1634 55.1634 72 64 72C68.4199 72 72.4117 73.7843 75.3137 76.6863C77.6569 79.0294 81.4558 79.0294 83.799 76.6863C86.1421 74.3431 86.1421 70.5442 83.799 68.201C78.7386 63.1406 71.7303 60 64 60C48.536 60 36 72.536 36 88C36 103.464 48.536 116 64 116C79.464 116 92 103.464 92 88C92 84.6863 89.3137 82 86 82H64C60.6863 82 58 84.6863 58 88C58 91.3137 60.6863 94 64 94H78.837C76.4634 99.8637 70.7148 104 64 104C55.1634 104 48 96.8366 48 88Z" fill="black"/>
</svg>

<svg xmlns="http://www.w3.org/2000/svg" width="192" height="192" fill="none" xmlns:v="https://vecta.io/nano"><path fill-rule="evenodd" d="M34 28a6 6 0 0 0-6 6v100a6 6 0 0 0 6 6h87.375L79.826 28H34zm-18 6c0-9.941 8.059-18 18-18h50a6 6 0 0 1 5.625 3.913L97.077 40H158c9.941 0 18 8.059 18 18v100c0 9.941-8.059 18-18 18h-50a6 6 0 0 1-5.625-3.913L94.923 152H34c-9.941 0-18-8.059-18-18V34zm119.625 109.913L101.529 52H158a6 6 0 0 1 6 6v100a6 6 0 0 1-6 6h-45.826l-4.452-12H130c1.964 0 3.804-.961 4.925-2.574s1.384-3.671.7-5.513zM48 88c0-8.837 7.163-16 16-16a15.93 15.93 0 0 1 11.314 4.686 6 6 0 1 0 8.485-8.485A27.93 27.93 0 0 0 64 60c-15.464 0-28 12.536-28 28s12.536 28 28 28 28-12.536 28-28a6 6 0 0 0-6-6H64a6 6 0 1 0 0 12h14.837c-2.374 5.864-8.122 10-14.837 10-8.837 0-16-7.163-16-16z" fill="#000"/></svg>
